src/assets/outline/ArrowLeft3.svg

<svg width="24" height="24" viewBox="0 0 24 24"  xmlns="http://www.w3.org/2000/svg">
<path d="M12 22.75C6.07 22.75 1.25 17.93 1.25 12C1.25 6.07 6.07 1.25 12 1.25C17.93 1.25 22.75 6.07 22.75 12C22.75 17.93 17.93 22.75 12 22.75ZM12 2.75C6.9 2.75 2.75 6.9 2.75 12C2.75 17.1 6.9 21.25 12 21.25C17.1 21.25 21.25 17.1 21.25 12C21.25 6.9 17.1 2.75 12 2.75Z" />
<path d="M15.5 12.75H9.5C9.09 12.75 8.75 12.41 8.75 12C8.75 11.59 9.09 11.25 9.5 11.25H15.5C15.91 11.25 16.25 11.59 16.25 12C16.25 12.41 15.91 12.75 15.5 12.75Z" />
<path d="M11.4999 15.7499C11.3099 15.7499 11.1199 15.6799 10.9699 15.5299L7.96994 12.5299C7.67994 12.2399 7.67994 11.7599 7.96994 11.4699L10.9699 8.46994C11.2599 8.17994 11.7399 8.17994 12.0299 8.46994C12.3199 8.75994 12.3199 9.23994 12.0299 9.52994L9.55994 11.9999L12.0299 14.4699C12.3199 14.7599 12.3199 15.2399 12.0299 15.5299C11.8799 15.6799 11.6899 15.7499 11.4999 15.7499Z" />
</svg>

<?xml version="1.0" encoding="UTF-8"?>
<svg width="24" height="24" viewBox="0 0 24 24" xmlns="http://www.w3.org/2000/svg">
 <path d="m12 22.75c-5.93 0-10.75-4.82-10.75-10.75s4.82-10.75 10.75-10.75 10.75 4.82 10.75 10.75-4.82 10.75-10.75 10.75zm0-20c-5.1 0-9.25 4.15-9.25 9.25s4.15 9.25 9.25 9.25 9.25-4.15 9.25-9.25-4.15-9.25-9.25-9.25z"/>
 <path d="m15.5 12.75h-6c-0.41 0-0.75-0.34-0.75-0.75s0.34-0.75 0.75-0.75h6c0.41 0 0.75 0.34 0.75 0.75s-0.34 0.75-0.75 0.75z"/>
 <path d="m11.5 15.75c-0.19 0-0.38-0.07-0.53-0.22l-3-3c-0.29-0.29-0.29-0.77 0-1.06l3-3c0.29-0.29 0.77-0.29 1.06 0s0.29 0.77 0 1.06l-2.47 2.47 2.47 2.47c0.29 0.29 0.29 0.77 0 1.06-0.15 0.15-0.34 0.22-0.53 0.22z"/>
</svg>
